src/symbolic/status/avatar-default-symbolic.svg

<svg xmlns="http://www.w3.org/2000/svg" width="16" height="16" enable-background="new"><defs><filter id="a" color-interpolation-filters="sRGB"><feBlend mode="darken" in2="BackgroundImage"/></filter></defs><path style="marker:none" overflow="visible" d="M8 1.5A2.5 2.5 0 0 0 5.5 4v1c-.277 0-.5.223-.5.5V6c0 .552.224 1 .5 1 .037 0 .059-.048.094-.063.148.759.47 1.418.906 1.875-.02.701-.106.74-.156.969-1.145 1.009-2.412 1.567-3.657 2.344a.487.487 0 0 0-.187.375V14c0 .277.223.5.5.5h10c.277 0 .5-.223.5-.5v-1.5a.484.484 0 0 0-.156-.344c-1.264-.78-2.564-1.324-3.688-2.375-.05-.229-.136-.268-.156-.969.436-.457.757-1.116.906-1.875.035.015.057.063.094.063.276 0 .5-.448.5-1v-.5c0-.277-.223-.5-.5-.5V4A2.5 2.5 0 0 0 8 1.5z" color="#000" fill="#5d656b"/></svg>

<?xml version="1.0" encoding="UTF-8" standalone="no"?>
<svg
   xmlns:osb="http://www.openswatchbook.org/uri/2009/osb"
   xmlns:dc="http://purl.org/dc/elements/1.1/"
   xmlns:cc="http://creativecommons.org/ns#"
   xmlns:rdf="http://www.w3.org/1999/02/22-rdf-syntax-ns#"
   xmlns:svg="http://www.w3.org/2000/svg"
   xmlns="http://www.w3.org/2000/svg"
   xmlns:sodipodi="http://sodipodi.sourceforge.net/DTD/sodipodi-0.dtd"
   xmlns:inkscape="http://www.inkscape.org/namespaces/inkscape"
   width="16"
   version="1.1"
   style="enable-background:new"
   id="svg7384"
   height="16"
   sodipodi:docname="avatar-default-symbolic.svg"
   inkscape:version="0.92.4 (5da689c313, 2019-01-14)">
  <sodipodi:namedview
     pagecolor="#ffffff"
     bordercolor="#666666"
     borderopacity="1"
     objecttolerance="10"
     gridtolerance="10"
     guidetolerance="10"
     inkscape:pageopacity="0"
     inkscape:pageshadow="2"
     inkscape:window-width="1366"
     inkscape:window-height="711"
     id="namedview21"
     showgrid="true"
     inkscape:zoom="14.75"
     inkscape:cx="6.2637487"
     inkscape:cy="6.835351"
     inkscape:window-x="0"
     inkscape:window-y="27"
     inkscape:window-maximized="1"
     inkscape:current-layer="svg7384">
    <inkscape:grid
       type="xygrid"
       id="grid831" />
  </sodipodi:namedview>
  <metadata
     id="metadata90">
    <rdf:RDF>
      <cc:Work
         rdf:about="">
        <dc:format>image/svg+xml</dc:format>
        <dc:type
           rdf:resource="http://purl.org/dc/dcmitype/StillImage" />
        <dc:title>Moka Symbolic Icon Theme</dc:title>
      </cc:Work>
    </rdf:RDF>
  </metadata>
  <title
     id="title8473">Moka Symbolic Icon Theme</title>
  <defs
     id="defs7386">
    <linearGradient
       osb:paint="solid"
       id="linearGradient5606">
      <stop
         style="stop-color:#000000;stop-opacity:1;"
         offset="0"
         id="stop5608" />
    </linearGradient>
    <filter
       style="color-interpolation-filters:sRGB"
       id="filter7554">
      <feBlend
         mode="darken"
         in2="BackgroundImage"
         id="feBlend7556" />
    </filter>
  </defs>
  <g
     transform="translate(-401.0002,248.00336)"
     style="display:inline;filter:url(#filter7554)"
     id="layer10" />
  <g
     transform="translate(-160,-368.99664)"
     style="display:inline"
     id="layer1" />
  <g
     transform="translate(-401.0002,248.00336)"
     style="display:inline"
     id="layer14" />
  <g
     transform="translate(-401.0002,248.00336)"
     style="display:inline"
     id="layer15" />
  <g
     transform="translate(-401.0002,248.00336)"
     style="display:inline"
     id="g71291" />
  <g
     transform="translate(-160,-218.99664)"
     style="display:inline"
     id="layer2" />
  <g
     transform="translate(-160,-218.99664)"
     style="display:inline"
     id="g6058" />
  <g
     transform="translate(-401.0002,248.00336)"
     style="display:inline"
     id="layer12" />
  <path
     inkscape:connector-curvature="0"
     id="path2"
     style="color:#000000;overflow:visible;fill:#bebebe;fill-opacity:1;marker:none"
     overflow="visible"
     d="M 8,1.5 C 6.619288,1.5 5.5,2.6192881 5.5,4 V 5 C 5.223,5 5,5.223 5,5.5 V 6 C 5,6.552 5.224,7 5.5,7 5.537,7 5.559,6.952 5.594,6.937 5.742,7.696 6.064,8.355 6.5,8.812 6.48,9.513 6.394,9.552 6.344,9.781 5.199,10.79 3.932,11.348 2.687,12.125 2.571326,12.21542 2.502619,12.353202 2.5,12.5 V 14 c 0,0.277 0.223,0.5 0.5,0.5 h 10 c 0.277,0 0.5,-0.223 0.5,-0.5 V 12.5 C 13.4967,12.368938 13.44044,12.244806 13.344,12.156 12.08,11.376 10.78,10.832 9.656,9.781 9.606,9.552 9.52,9.513 9.5,8.812 9.936,8.355 10.257,7.696 10.406,6.937 10.441,6.952 10.463,7 10.5,7 10.776,7 11,6.552 11,6 V 5.5 C 11,5.223 10.777,5 10.5,5 V 4 C 10.5,2.6192881 9.380712,1.5 8,1.5 Z"
     sodipodi:nodetypes="sscssscccccsssscccccssscss" />
</svg>
